X:341
T: O SCHAEFER WO GEHEST DU HIN
N: E1493
O: Europa, Mitteleuropa, Deutschland, Franken, Wonfort
R: Staende - Lied, Hirten -,  Schaefer - Lied
M: 3/4
L: 1/8
K: G
D2 | G2G2B2 | A2G2A2 | B4
G2 | A3Bce | d2G2BA | G4
D2 | G2G2B2 | A2G2A2 | B4
G2 | A3Bce | d2G2BA | G4
B2 | BAG2AB | c2BcA2 |
A2Add2 | B3AG2 |
G3AB2 | A2F2Ac | B4
G2 | A3Bce | d2G2BA | G4

@@@ Tune index: 5025
